X:460
T: Priest's Leap
S: "The Roche Collection of Traditional Irish Music" [III/27/88]
L: 1/8
M: 6/8
R: jig
K: G
D | G2G BGB | def gfg | ecA dBG | FAG FED |
G2G BGB | def gfg | ecA dBG |1 FEF G2 :|2 FEF GBd ||
efe edB | def g2a | bag agf | gf/e/g fdB |
efe edB | def g2a | bag agf |1 gfg e2B :|2 gfa gdB |]
